X:41
T:Reel 41
M:4/4
K:Amin
L:1/8
E2ED EGFD|G2ED B,A,A,G,|E,2ED EGAB|GEDB, B,A,A,2:|E>A (3AGA BAAG|EGGF GABG|EAAG EGAB|cBAG BAA2|BGAG BGAG|EGDB, G,A,B,D|BGAF GEDB,|EEDB, B,A,A,2|
